X:1507
T:Mollie McCarthy
R:reel
N:"collected from Kennedy"
B:"O'Neill's Dance Music of Ireland, 1507"
T: maire ni .mic car.tai.g.
Z:transcribed by John B. Walsh, walsh@math.ubc.ca 8/23/96
M:C|
L:1/8
K:D
DAFA DAFA|DAFA (GE) E2|DAFA DFAF|dBAG (FD) D2:|
afdf gfed|gefd (Be) e2|afdf gfed|(fa)eg (fd) d2|
afdf gfed|gefd (Be) e2|af {a}ge fdec|dBAG FD D2||


